src/assets/img/providers-white/pangagames.svg

<svg width="146" height="22" viewBox="0 0 146 22" fill="none" xmlns="http://www.w3.org/2000/svg">
<g clip-path="url(#clip0_4132_8534)">
<path fill-rule="evenodd" clip-rule="evenodd" d="M19.5173 2.51445C18.5187 1.50938 17.4014 0.825627 16.1656 0.46328C14.7647 -0.0737791 11.8141 -0.416719 10.9729 1.18475C10.5026 2.07666 11.0034 2.88467 11.4815 3.65611C11.5427 3.75495 11.6036 3.85319 11.6621 3.95093L11.9435 3.79891L14.9685 2.8251C12.212 7.77292 11.9974 12.8189 14.3247 17.963L14.9362 19.0242C14.9211 19.1083 14.851 19.1355 14.7259 19.1053C13.7704 18.8767 12.7762 18.564 11.7431 18.1671L11.7429 18.1668C11.7559 18.1345 11.7267 18.0978 11.6556 18.0568C11.6013 18.1477 11.5449 18.239 11.4883 18.331C11.018 19.0939 10.5223 19.8981 10.9438 20.7874C11.704 22.4017 14.6736 22.0816 16.0423 21.5705L16.0426 21.5706C17.3669 21.1845 18.5662 20.4542 19.6403 19.38C19.7632 19.3153 19.7956 19.2808 19.7373 19.2765L19.2035 18.2736C17.1588 13.1596 17.2537 8.10288 19.4882 3.10327C19.5292 3.01053 19.6241 2.8919 19.7729 2.74739L19.5173 2.51445ZM27.2529 7.36758C26.1163 5.4566 24.4231 4.11934 22.1735 3.35581C21.8608 3.81091 21.5664 4.41267 21.2903 5.16111C19.7007 9.47268 19.8376 13.6947 21.7012 17.8273L22.1573 18.6556C24.5471 17.8598 26.3028 16.4113 27.4244 14.3105L27.832 13.5146C27.8816 13.4154 27.955 13.3389 28.052 13.2849L29.0259 12.7382C29.1294 12.6799 29.1736 12.5915 29.1585 12.4729C29.0603 11.7306 28.7622 10.9965 28.4724 10.2829L28.4724 10.2828L28.4724 10.2828C28.3517 9.98552 28.2324 9.69181 28.1297 9.40258C27.7932 8.46003 27.501 7.78169 27.2529 7.36758ZM26.157 8.24671C26.5811 8.67082 26.8194 9.24603 26.8194 9.84581C26.8194 10.4456 26.5811 11.0208 26.157 11.4449C25.7329 11.869 25.1577 12.1073 24.5579 12.1073C23.9581 12.1073 23.3829 11.869 22.9588 11.4449C22.5347 11.0208 22.2965 10.4456 22.2965 9.84581C22.2965 9.24603 22.5347 8.67082 22.9588 8.24671C23.3829 7.8226 23.9581 7.58434 24.5579 7.58434C25.1577 7.58434 25.7329 7.8226 26.157 8.24671ZM11.0603 5.66592C11.3148 4.93258 11.4754 4.38582 11.5423 4.02562C9.8578 4.8819 8.48388 5.93984 7.42054 7.19944C7.1876 7.47552 6.70447 8.14307 5.97113 9.20209C5.36074 8.43209 4.64793 7.77939 3.83264 7.24449C3.25678 6.86276 2.71536 6.78422 2.20852 7.00852C0.555284 7.7397 0.924108 12.0879 1.20881 13.4694C1.48058 14.7829 2.51911 15.7082 3.82617 14.7441C4.60911 14.2674 5.25725 13.686 5.77058 13.0001C5.7926 12.9711 5.82139 12.9479 5.85443 12.9325C5.88747 12.9172 5.92376 12.9102 5.96013 12.9121C5.99651 12.914 6.03186 12.9248 6.06311 12.9435C6.09436 12.9622 6.12055 12.9883 6.1394 13.0195C7.44862 15.1763 9.25068 16.8371 11.5456 18.0018C11.4722 17.3634 11.3202 16.9299 11.0894 16.7013C10.7098 14.9695 10.4865 13.7973 10.4197 13.1847C10.1091 10.2945 10.3226 7.78827 11.0603 5.66592ZM25.6041 10.2062C25.7898 10.0205 25.8941 9.76874 25.8941 9.50617C25.8941 9.24361 25.7898 8.9918 25.6041 8.80614C25.4185 8.62048 25.1667 8.51617 24.9041 8.51617C24.6415 8.51617 24.3897 8.62048 24.2041 8.80614C24.0184 8.9918 23.9141 9.24361 23.9141 9.50617C23.9141 9.76874 24.0184 10.0205 24.2041 10.2062C24.3897 10.3919 24.6415 10.4962 24.9041 10.4962C25.1667 10.4962 25.4185 10.3919 25.6041 10.2062ZM25.6947 9.37664C25.6908 9.39535 25.6852 9.41375 25.6779 9.43163C25.6606 9.47412 25.6342 9.51242 25.6003 9.54436C25.5663 9.5763 25.5255 9.60125 25.4802 9.61778C25.4348 9.63432 25.3858 9.64211 25.3359 9.64072C25.286 9.63933 25.2362 9.62877 25.1894 9.60967C25.0949 9.57109 25.0181 9.50001 24.9761 9.41206C24.965 9.38896 24.9566 9.3652 24.9508 9.34116C24.9348 9.27532 24.9383 9.2058 24.965 9.14046C25.0379 8.96179 25.2566 8.88208 25.4535 8.96242C25.6305 9.03467 25.7296 9.21176 25.6947 9.37664ZM73.5985 17.8177C73.1358 18.5845 72.5697 19.1183 71.6444 19.2348C68.1664 19.678 66.7753 17.4295 66.717 14.4336C66.6739 12.2767 66.6739 10.0616 66.717 7.78828C66.7526 5.81475 67.4158 3.66975 69.4864 3.13269C70.9294 2.76171 72.3033 2.81348 73.6082 3.28799C75.517 3.98681 75.86 6.32269 75.7855 8.18622C75.7812 8.30916 75.7165 8.37064 75.5914 8.37064H73.1488C73.1199 8.37072 73.0913 8.36485 73.0648 8.3534C73.0383 8.34194 73.0145 8.32516 72.995 8.30413C72.9755 8.2831 72.9607 8.25829 72.9515 8.2313C72.9424 8.20431 72.939 8.17573 72.9417 8.1474C73.0776 6.5524 72.9902 4.51416 70.6705 5.14181C69.9458 5.33593 69.7 6.35504 69.6935 6.97622C69.6676 9.92034 69.6719 12.6488 69.7064 15.1615C69.7129 15.5152 69.7873 15.8808 69.9297 16.2583C70.3276 17.3065 72.1232 17.4683 72.7185 16.5397C73.2892 15.6499 73.2459 14.3294 73.2095 13.2212L73.2038 13.0424C73.2016 12.9216 73.1391 12.8612 73.0161 12.8612H71.5441C71.4923 12.8612 71.4664 12.8343 71.4664 12.7803L71.4632 11.0624C71.461 10.9934 71.4945 10.9589 71.5635 10.9589L75.75 10.9621C75.7817 10.9621 75.8121 10.9747 75.8346 10.9972C75.857 11.0196 75.8697 11.0501 75.8697 11.0818L75.8664 18.8271C75.8664 19.0018 75.7802 19.0892 75.6076 19.0892H74.2326C74.0299 19.0892 73.9155 18.9878 73.8897 18.785L73.7764 17.8533C73.7549 17.6699 73.6955 17.6581 73.5985 17.8177ZM99.9435 17.7722C99.51 18.7449 98.6839 19.2561 97.4653 19.3057C94.2364 19.4351 93.1009 17.0539 93.0717 14.2425C93.0502 12.1999 93.0491 10.1347 93.0685 8.04687C93.0911 5.69804 93.7964 3.39128 96.4753 2.98687C97.6076 2.81647 98.6677 2.87794 99.6556 3.17128C101.45 3.70402 102.278 5.40902 102.14 8.28628C102.138 8.34451 102.107 8.37363 102.046 8.37363L99.3773 8.36716C99.3654 8.36724 99.3536 8.36479 99.3427 8.35997C99.3318 8.35515 99.3221 8.34807 99.3141 8.3392C99.3062 8.33033 99.3002 8.31987 99.2966 8.30851C99.293 8.29716 99.2918 8.28517 99.2932 8.27334C99.4463 6.67294 99.2533 5.68618 98.7141 5.31304C98.0735 4.8698 96.6985 4.90863 96.3135 5.7951C96.1474 6.17902 96.0633 6.58236 96.0611 7.0051C96.0353 9.78098 96.0407 12.5504 96.0773 15.3133C96.0935 16.3422 96.65 17.1348 97.7532 17.138C99.7696 17.138 99.6459 14.6201 99.5729 13.1356L99.5682 13.0389C99.5639 12.9203 99.5024 12.861 99.3838 12.861H97.9117C97.8578 12.861 97.8309 12.834 97.8309 12.7801V11.0622C97.8309 10.9931 97.8643 10.9597 97.9311 10.9619H102.118C102.15 10.9627 102.18 10.9757 102.202 10.998C102.225 11.0204 102.237 11.0504 102.237 11.0816L102.234 18.8075C102.234 18.9951 102.14 19.0889 101.953 19.0889H100.578C100.508 19.089 100.44 19.064 100.387 19.0183C100.334 18.9727 100.298 18.9094 100.286 18.8398L100.118 17.798C100.086 17.591 100.028 17.5824 99.9435 17.7722ZM139.349 6.09918C139.44 5.62899 139.682 5.33134 140.074 5.20624C141.487 4.75977 142.21 5.5686 142.245 7.63271C142.245 7.68879 142.273 7.71144 142.329 7.70066L144.671 7.24124C144.728 7.23046 144.753 7.19703 144.749 7.14095C144.527 4.12997 143.04 2.72046 140.288 2.91242C138.544 3.03213 137.062 3.90565 136.677 5.70448C136.244 7.7384 136.826 9.4186 138.424 10.7451C139.563 11.6919 140.523 12.546 141.304 13.3074C142.127 14.1141 142.399 15.1289 142.119 16.3518C142.087 16.4819 142.014 16.5969 141.912 16.6786C140.938 17.4615 139.796 16.9407 139.391 15.8277C139.193 15.2777 139.11 14.7903 139.142 14.3654C139.17 14.0246 139.016 13.8887 138.68 13.9577L136.81 14.3395C136.575 14.3869 136.478 14.5282 136.519 14.7633C136.543 14.9049 136.566 15.0474 136.588 15.19C136.691 15.8357 136.793 16.4838 137.085 17.0668C137.898 18.7039 139.349 19.4372 141.439 19.2668C144.824 18.9886 145.768 15.7242 144.503 12.9645C143.923 11.7055 142.359 10.4027 141.072 9.32997L141.072 9.3297C140.794 9.09863 140.53 8.87823 140.291 8.67124C139.469 7.96164 139.155 7.10428 139.349 6.09918ZM39.1459 12.0717L39.1491 18.979C39.1491 19.0524 39.1113 19.089 39.0359 19.089L36.2794 19.0858C36.2255 19.0858 36.1985 19.0599 36.1985 19.0081V3.2555C36.1985 3.1455 36.2535 3.08942 36.3635 3.08726C38.3931 3.04628 40.0733 3.05707 41.4041 3.11962C42.9117 3.19295 43.9751 3.90903 44.5941 5.26785C45.1894 6.57491 45.2023 9.43491 44.0344 10.6837C42.8179 11.9843 40.9997 12.0264 39.3206 11.9099C39.2983 11.9081 39.2758 11.911 39.2547 11.9183C39.2335 11.9256 39.2141 11.9373 39.1977 11.9525C39.1813 11.9677 39.1682 11.9861 39.1593 12.0066C39.1504 12.0271 39.1458 12.0493 39.1459 12.0717ZM39.162 5.27756L39.1297 9.74873C39.1297 9.78906 39.1457 9.82774 39.1742 9.85626C39.2027 9.88477 39.2414 9.90079 39.2817 9.90079L40.5241 9.9105C40.7431 9.91217 40.9604 9.86972 41.1634 9.78555C41.3664 9.70139 41.5511 9.57717 41.7071 9.42001C41.8631 9.26284 41.9872 9.07582 42.0723 8.86964C42.1574 8.66346 42.2019 8.44217 42.2032 8.21844L42.2097 6.84668C42.2123 6.39586 42.0397 5.96243 41.7298 5.64155C41.4198 5.32067 40.9978 5.13857 40.5564 5.13521L39.3141 5.1255C39.2738 5.1255 39.2351 5.14152 39.2066 5.17004C39.1781 5.19855 39.162 5.23723 39.162 5.27756ZM47.7129 18.992L48.3373 15.4558C48.3419 15.4301 48.3555 15.4069 48.3757 15.3903C48.3958 15.3737 48.4212 15.3648 48.4473 15.3652L51.0582 15.3717C51.0838 15.372 51.1084 15.3813 51.1279 15.3978C51.1474 15.4143 51.1605 15.4371 51.165 15.4623L51.7861 18.992C51.7907 19.0171 51.8038 19.0399 51.8233 19.0565C51.8427 19.073 51.8674 19.0822 51.8929 19.0826L54.4003 19.0955C54.4168 19.0959 54.4333 19.0925 54.4483 19.0856C54.4634 19.0787 54.4767 19.0685 54.4873 19.0557C54.4979 19.043 54.5054 19.028 54.5094 19.0119C54.5134 18.9958 54.5137 18.9791 54.5103 18.9629L51.2814 3.16492C51.2762 3.13982 51.2623 3.11735 51.2422 3.1014C51.2221 3.08545 51.1971 3.07702 51.1714 3.07757L48.292 3.07433C48.2664 3.07378 48.2414 3.08221 48.2213 3.09816C48.2012 3.11411 48.1873 3.13658 48.182 3.16168L44.9467 18.9564C44.9433 18.9726 44.9436 18.9894 44.9476 19.0055C44.9516 19.0215 44.9591 19.0365 44.9697 19.0493C44.9803 19.062 44.9936 19.0722 45.0087 19.0791C45.0237 19.086 45.0402 19.0894 45.0567 19.089L47.6061 19.0826C47.6317 19.0822 47.6563 19.073 47.6758 19.0565C47.6953 19.0399 47.7084 19.0171 47.7129 18.992ZM50.6959 13.4661H48.8C48.7829 13.4663 48.766 13.4628 48.7504 13.4558C48.7349 13.4488 48.721 13.4384 48.7099 13.4254C48.6988 13.4125 48.6907 13.3972 48.6861 13.3808C48.6815 13.3643 48.6807 13.347 48.6835 13.3302L49.6638 7.35139C49.7112 7.05806 49.7598 7.05698 49.8094 7.34815L50.8123 13.327C50.8274 13.4197 50.7886 13.4661 50.6959 13.4661ZM62.1229 11.8743L62.1262 3.18754C62.1262 3.15751 62.1377 3.12871 62.1584 3.10747C62.179 3.08624 62.207 3.0743 62.2362 3.0743H64.4459C64.5106 3.0743 64.5429 3.10774 64.5429 3.1746L64.5462 18.9078C64.5462 19.0286 64.4858 19.089 64.365 19.089H62.7926C62.6697 19.089 62.5834 19.0319 62.5338 18.9175L58.7388 9.83283C58.7321 9.81811 58.7205 9.80613 58.706 9.79886C58.6915 9.7916 58.675 9.78949 58.6592 9.79289C58.6434 9.79628 58.6291 9.80497 58.6189 9.81753C58.6087 9.83008 58.603 9.84576 58.6029 9.86195V19.0081C58.6029 19.0287 58.5944 19.0485 58.5792 19.063C58.5641 19.0776 58.5435 19.0858 58.522 19.0858L56.2541 19.089C56.1765 19.089 56.1376 19.0513 56.1376 18.9758V3.2943C56.1376 3.14764 56.212 3.0743 56.3609 3.0743H57.8944C58.0626 3.0743 58.1802 3.15195 58.247 3.30725L61.9968 11.9002C62.0809 12.0921 62.1229 12.0835 62.1229 11.8743ZM80.0432 18.9694L80.6644 15.4817C80.6697 15.4503 80.6859 15.4217 80.7102 15.401C80.7344 15.3803 80.7652 15.3688 80.797 15.3685H83.3594C83.3913 15.3688 83.422 15.3803 83.4463 15.401C83.4705 15.4217 83.4867 15.4503 83.492 15.4817L84.1132 18.9726C84.1185 19.0041 84.1347 19.0326 84.159 19.0533C84.1832 19.074 84.214 19.0855 84.2459 19.0859L86.6982 19.0891C86.7185 19.0895 86.7385 19.0853 86.757 19.0769C86.7754 19.0685 86.7917 19.0561 86.8048 19.0406C86.8178 19.0251 86.8272 19.0069 86.8323 18.9873C86.8373 18.9677 86.838 18.9472 86.8341 18.9273L83.6117 3.18115C83.6058 3.1503 83.5893 3.12248 83.5651 3.10243C83.5409 3.08237 83.5105 3.07132 83.4791 3.07115L80.6417 3.07762C80.6108 3.07764 80.5807 3.08823 80.5566 3.10764C80.5325 3.12706 80.5157 3.15413 80.5091 3.18438L77.277 18.9273C77.2726 18.9474 77.2728 18.9683 77.2776 18.9883C77.2825 19.0083 77.2918 19.027 77.3049 19.0429C77.318 19.0588 77.3345 19.0715 77.3532 19.08C77.3719 19.0886 77.3923 19.0928 77.4129 19.0923L79.9106 19.0826C79.9425 19.0823 79.9732 19.0708 79.9975 19.0501C80.0217 19.0294 80.0379 19.0008 80.0432 18.9694ZM83.0391 13.4661L81.1141 13.4694C81.0343 13.4694 81.0009 13.4295 81.0138 13.3497L81.9876 7.36115C82.0372 7.06134 82.0868 7.06134 82.1365 7.36115L83.1394 13.3497C83.1523 13.4273 83.1189 13.4661 83.0391 13.4661ZM107.039 15.4558L106.395 19.0049C106.39 19.0289 106.377 19.0505 106.358 19.0659C106.339 19.0812 106.316 19.0894 106.291 19.089L103.739 19.0858C103.723 19.0856 103.708 19.0821 103.695 19.0755C103.681 19.0689 103.669 19.0594 103.66 19.0477C103.65 19.036 103.643 19.0223 103.64 19.0077C103.636 18.993 103.635 18.9777 103.638 18.9628L106.88 3.15842C106.884 3.13499 106.897 3.11383 106.915 3.0985C106.933 3.08317 106.956 3.07463 106.98 3.0743H109.873C109.896 3.07463 109.919 3.08317 109.938 3.0985C109.956 3.11383 109.968 3.13499 109.973 3.15842L113.205 18.9661C113.208 18.9809 113.207 18.9962 113.204 19.0109C113.2 19.0255 113.193 19.0392 113.184 19.0509C113.174 19.0627 113.162 19.0721 113.148 19.0787C113.135 19.0853 113.12 19.0888 113.105 19.089H110.584C110.56 19.0894 110.536 19.0812 110.517 19.0659C110.498 19.0505 110.485 19.0289 110.481 19.0049L109.856 15.4525C109.852 15.4286 109.839 15.407 109.82 15.3916C109.801 15.3762 109.777 15.368 109.753 15.3684L107.142 15.3717C107.118 15.3712 107.094 15.3794 107.075 15.3948C107.056 15.4102 107.043 15.4318 107.039 15.4558ZM108.352 7.36107L107.394 13.3237C107.379 13.4186 107.419 13.4661 107.514 13.4661L109.394 13.479C109.41 13.4793 109.427 13.4758 109.442 13.469C109.457 13.4621 109.471 13.452 109.482 13.4393C109.492 13.4266 109.5 13.4117 109.505 13.3957C109.509 13.3796 109.51 13.3628 109.507 13.3464L108.507 7.36107C108.453 7.04617 108.402 7.04617 108.352 7.36107ZM117.036 19.0017L117.21 8.7232C117.217 8.27889 117.266 8.27458 117.359 8.71026L119.52 18.8432C119.555 19.0071 119.657 19.0891 119.828 19.0891H121.044C121.212 19.0891 121.314 19.0071 121.348 18.8432L123.564 8.36409C123.567 8.35774 123.572 8.35243 123.578 8.34893C123.584 8.34544 123.591 8.34394 123.598 8.34467C123.604 8.34539 123.611 8.34829 123.616 8.35295C123.621 8.35761 123.625 8.36378 123.626 8.37056L123.817 19.0211C123.819 19.0664 123.843 19.0891 123.888 19.0891L125.968 19.0859C126.014 19.0859 126.036 19.0632 126.036 19.0179L125.768 3.26203C125.765 3.13909 125.703 3.07762 125.58 3.07762L123.066 3.07115C122.996 3.07121 122.928 3.09566 122.873 3.14041C122.818 3.18516 122.78 3.24751 122.765 3.31703L120.504 13.9126C120.441 14.2081 120.379 14.2081 120.316 13.9126L118.106 3.24585C118.083 3.13154 118.013 3.07438 117.896 3.07438H115.298C115.136 3.07438 115.054 3.15634 115.052 3.32026L114.79 18.9953C114.79 19.0578 114.822 19.0891 114.884 19.0891H116.945C117.005 19.0891 117.036 19.06 117.036 19.0017ZM131.355 11.9131L131.349 16.9634C131.349 16.9909 131.359 17.0172 131.379 17.0366C131.398 17.056 131.425 17.0669 131.452 17.0669H135.137C135.165 17.0669 135.191 17.0779 135.21 17.0973C135.23 17.1167 135.241 17.143 135.241 17.1705L135.237 18.9855C135.237 19.0129 135.226 19.0393 135.207 19.0587C135.188 19.0781 135.161 19.089 135.134 19.089H128.553C128.526 19.089 128.499 19.0781 128.48 19.0587C128.461 19.0393 128.45 19.0129 128.45 18.9855V3.17783C128.45 3.15038 128.461 3.12404 128.48 3.10463C128.499 3.08521 128.526 3.0743 128.553 3.0743H135.092C135.119 3.0743 135.146 3.08521 135.165 3.10463C135.184 3.12404 135.195 3.15038 135.195 3.17783L135.202 5.03489C135.202 5.06235 135.191 5.08868 135.171 5.1081C135.152 5.12752 135.126 5.13842 135.098 5.13842L131.459 5.13519C131.431 5.13519 131.405 5.14609 131.385 5.16551C131.366 5.18492 131.355 5.21126 131.355 5.23872L131.352 9.64195C131.352 9.66941 131.363 9.69574 131.382 9.71516C131.401 9.73457 131.428 9.74548 131.455 9.74548L134.283 9.75195C134.31 9.75195 134.337 9.76286 134.356 9.78227C134.376 9.80169 134.386 9.82802 134.386 9.85548L134.39 11.7028C134.39 11.7303 134.379 11.7566 134.359 11.776C134.34 11.7955 134.314 11.8064 134.286 11.8064L131.459 11.8096C131.431 11.8096 131.405 11.8205 131.385 11.8399C131.366 11.8593 131.355 11.8857 131.355 11.9131Z" fill="white"/>
</g>
<defs>
<clipPath id="clip0_4132_8534">
<rect width="144.294" height="22" fill="white" transform="translate(0.852905 0.000976562)"/>
</clipPath>
</defs>
</svg>

<svg width="146" height="22" fill="none" xmlns="http://www.w3.org/2000/svg"><g clip-path="url(#a)"><path fill-rule="evenodd" clip-rule="evenodd" d="M19.517 2.514C18.52 1.51 17.401.826 16.166.464c-1.401-.538-4.352-.88-5.193.72-.47.893.03 1.7.508 2.472.062.099.123.197.181.295l.281-.152 3.026-.974c-2.757 4.948-2.972 9.994-.644 15.138l.611 1.061c-.015.084-.085.111-.21.081a23.748 23.748 0 0 1-2.983-.938c.013-.033-.016-.07-.087-.11l-.168.274c-.47.763-.966 1.567-.544 2.456.76 1.615 3.73 1.295 5.098.784 1.325-.387 2.524-1.117 3.598-2.191.123-.065.156-.1.097-.104l-.534-1.002c-2.044-5.114-1.95-10.171.285-15.17.041-.093.136-.212.285-.357l-.256-.233Zm7.736 4.854c-1.137-1.911-2.83-3.249-5.08-4.012-.312.455-.607 1.057-.883 1.805-1.59 4.312-1.452 8.534.411 12.666l.456.829c2.39-.796 4.146-2.245 5.267-4.345l.408-.796c.05-.1.123-.176.22-.23l.974-.547a.245.245 0 0 0 .133-.265c-.099-.742-.397-1.477-.687-2.19-.12-.297-.24-.591-.342-.88-.337-.943-.629-1.621-.877-2.035Zm-1.096.879a2.262 2.262 0 1 1-3.198 3.198 2.262 2.262 0 0 1 3.198-3.198ZM11.06 5.666c.255-.733.415-1.28.482-1.64-1.684.856-3.058 1.914-4.121 3.173-.233.277-.717.944-1.45 2.003a9.045 9.045 0 0 0-2.138-1.958c-.576-.381-1.118-.46-1.624-.235-1.654.73-1.285 5.079-1 6.46.272 1.314 1.31 2.24 2.617 1.275A6.834 6.834 0 0 0 5.771 13a.224.224 0 0 1 .292-.056.223.223 0 0 1 .076.075c1.31 2.157 3.112 3.818 5.407 4.983-.074-.639-.226-1.072-.457-1.3-.38-1.733-.603-2.905-.67-3.517-.31-2.89-.096-5.397.641-7.52Zm14.544 4.54a.99.99 0 1 0-1.4-1.4.99.99 0 0 0 1.4 1.4Zm.09-.83a.316.316 0 0 1-.094.168.35.35 0 0 1-.12.074.42.42 0 0 1-.504-.206.325.325 0 0 1-.011-.272c.073-.178.292-.258.488-.178.178.073.277.25.242.415ZM73.6 17.819c-.463.766-1.03 1.3-1.955 1.417-3.478.443-4.869-1.805-4.927-4.801a170.753 170.753 0 0 1 0-6.646c.036-1.973.699-4.118 2.77-4.655 1.442-.371 2.816-.32 4.121.155 1.909.699 2.252 3.035 2.177 4.898-.004.123-.069.185-.194.185H73.15a.21.21 0 0 1-.154-.067.204.204 0 0 1-.053-.157c.136-1.595.048-3.633-2.271-3.005-.725.194-.971 1.213-.978 1.834-.025 2.944-.021 5.673.013 8.186.007.353.081.719.224 1.096.398 1.049 2.193 1.21 2.788.282.571-.89.528-2.21.492-3.319l-.006-.179c-.002-.12-.065-.18-.188-.18h-1.472c-.052 0-.078-.028-.078-.082l-.003-1.718c-.002-.069.032-.103.1-.103l4.187.003a.12.12 0 0 1 .12.12l-.004 7.745c0 .175-.086.262-.258.262h-1.375c-.203 0-.318-.101-.343-.304l-.114-.932c-.021-.183-.08-.195-.177-.035Zm26.344-.046c-.433.973-1.26 1.484-2.478 1.534-3.229.13-4.364-2.252-4.393-5.064a312.663 312.663 0 0 1-.004-6.195c.023-2.349.728-4.656 3.407-5.06 1.133-.17 2.193-.11 3.18.184 1.795.533 2.623 2.238 2.485 5.115-.002.059-.033.088-.094.088l-2.669-.007a.084.084 0 0 1-.084-.094c.153-1.6-.04-2.587-.579-2.96-.64-.443-2.016-.404-2.4.482-.167.384-.25.787-.253 1.21-.026 2.776-.02 5.545.016 8.308.017 1.03.573 1.822 1.676 1.825 2.017 0 1.893-2.518 1.82-4.002l-.005-.097c-.004-.119-.066-.178-.184-.178h-1.472c-.054 0-.081-.027-.081-.08v-1.719c0-.069.033-.102.1-.1h4.187a.122.122 0 0 1 .119.12l-.003 7.726c0 .187-.094.28-.281.28h-1.375a.292.292 0 0 1-.191-.07.304.304 0 0 1-.101-.178l-.168-1.042c-.032-.207-.09-.216-.174-.026ZM139.35 6.1c.091-.47.333-.768.725-.893 1.413-.446 2.136.363 2.171 2.427 0 .056.028.078.084.068l2.342-.46c.057-.01.082-.044.078-.1-.222-3.011-1.709-4.42-4.461-4.229-1.744.12-3.226.994-3.611 2.792-.433 2.034.149 3.715 1.747 5.041a49.54 49.54 0 0 1 2.88 2.562c.823.807 1.095 1.822.815 3.045a.603.603 0 0 1-.207.327c-.974.783-2.116.262-2.521-.851-.198-.55-.281-1.038-.249-1.463.028-.34-.126-.476-.462-.407l-1.87.381c-.235.048-.332.19-.291.424.024.142.047.284.069.427.103.646.205 1.294.497 1.877.813 1.637 2.264 2.37 4.354 2.2 3.385-.278 4.329-3.543 3.064-6.303-.58-1.258-2.144-2.561-3.431-3.634a51.64 51.64 0 0 1-.781-.659c-.822-.71-1.136-1.567-.942-2.572ZM39.146 12.072l.003 6.907c0 .073-.038.11-.113.11l-2.757-.003c-.054 0-.08-.026-.08-.078V3.256c0-.11.055-.167.165-.169 2.03-.04 3.71-.03 5.04.033 1.508.073 2.571.789 3.19 2.148.595 1.307.608 4.167-.56 5.416-1.216 1.3-3.034 1.342-4.713 1.226a.162.162 0 0 0-.175.162Zm.016-6.794-.032 4.47a.152.152 0 0 0 .152.153l1.242.01a1.636 1.636 0 0 0 1.183-.491 1.704 1.704 0 0 0 .496-1.202l.007-1.371a1.72 1.72 0 0 0-.48-1.205 1.649 1.649 0 0 0-1.174-.507l-1.242-.01a.152.152 0 0 0-.152.153Zm8.55 13.714.625-3.536a.11.11 0 0 1 .11-.09l2.611.006a.11.11 0 0 1 .107.09l.621 3.53a.11.11 0 0 0 .107.09l2.507.014a.109.109 0 0 0 .087-.04.11.11 0 0 0 .023-.093L51.281 3.165a.11.11 0 0 0-.11-.087l-2.879-.004a.11.11 0 0 0-.11.088l-3.235 15.794a.11.11 0 0 0 .11.133l2.55-.006a.11.11 0 0 0 .106-.091Zm2.984-5.526H48.8a.118.118 0 0 1-.09-.04.117.117 0 0 1-.026-.096l.98-5.979c.047-.293.096-.294.145-.003l1.003 5.979c.015.093-.023.14-.116.14Zm11.427-1.592.003-8.686c0-.03.012-.06.032-.08a.108.108 0 0 1 .078-.034h2.21c.065 0 .097.034.097.1l.003 15.734c0 .12-.06.181-.181.181h-1.572a.262.262 0 0 1-.26-.171L58.74 9.832a.07.07 0 0 0-.12-.015.071.071 0 0 0-.016.044v9.146c0 .02-.009.04-.024.055a.082.082 0 0 1-.057.023l-2.268.003c-.078 0-.116-.038-.116-.113V3.294c0-.146.074-.22.223-.22h1.533c.169 0 .286.078.353.233l3.75 8.593c.084.192.126.184.126-.026Zm17.92 7.095.621-3.487a.136.136 0 0 1 .133-.114h2.562a.136.136 0 0 1 .133.114l.621 3.49a.135.135 0 0 0 .133.114l2.452.003a.136.136 0 0 0 .136-.162L83.612 3.181a.135.135 0 0 0-.133-.11l-2.837.007a.136.136 0 0 0-.133.106l-3.232 15.743a.137.137 0 0 0 .076.153c.019.009.04.013.06.012l2.498-.01a.136.136 0 0 0 .132-.113Zm2.996-5.503-1.925.003c-.08 0-.113-.04-.1-.12l.974-5.988c.05-.3.099-.3.148 0l1.003 5.989c.013.077-.02.116-.1.116Zm24 1.99-.644 3.549a.106.106 0 0 1-.037.06.103.103 0 0 1-.067.024l-2.552-.003a.1.1 0 0 1-.044-.01.095.095 0 0 1-.035-.028.09.09 0 0 1-.02-.04.097.097 0 0 1-.002-.045l3.242-15.805a.102.102 0 0 1 .1-.084h2.893c.023 0 .046.01.065.025.018.015.03.036.035.06l3.232 15.807a.113.113 0 0 1-.001.045.117.117 0 0 1-.02.04.106.106 0 0 1-.079.038h-2.521a.105.105 0 0 1-.067-.023.1.1 0 0 1-.036-.061l-.625-3.552a.1.1 0 0 0-.036-.061.104.104 0 0 0-.067-.024l-2.611.004a.104.104 0 0 0-.103.084Zm1.313-8.095-.958 5.963c-.015.095.025.142.12.142l1.88.013a.113.113 0 0 0 .113-.133l-1-5.985c-.054-.315-.105-.315-.155 0Zm8.684 11.64.174-10.278c.007-.444.056-.448.149-.013l2.161 10.133c.035.164.137.246.308.246h1.216c.168 0 .27-.082.304-.246l2.216-10.479a.035.035 0 0 1 .014-.015.033.033 0 0 1 .02-.004c.006 0 .013.003.018.008.005.005.009.01.01.018l.191 10.65c.002.045.026.068.071.068l2.08-.003c.046 0 .068-.023.068-.068l-.268-15.756c-.003-.123-.065-.184-.188-.184l-2.514-.007a.312.312 0 0 0-.301.246l-2.261 10.596c-.063.295-.125.295-.188 0l-2.21-10.667c-.023-.114-.093-.172-.21-.172h-2.598c-.162 0-.244.082-.246.246l-.262 15.675c0 .063.032.094.094.094h2.061c.06 0 .091-.029.091-.087Zm14.319-7.088-.006 5.05a.103.103 0 0 0 .103.104h3.685c.028 0 .054.01.073.03.02.02.031.046.031.073l-.004 1.815a.103.103 0 0 1-.103.104h-6.581a.103.103 0 0 1-.103-.104V3.178a.103.103 0 0 1 .103-.104h6.539a.103.103 0 0 1 .103.104l.007 1.857a.102.102 0 0 1-.031.073.101.101 0 0 1-.073.03l-3.639-.003a.105.105 0 0 0-.074.03.105.105 0 0 0-.03.074l-.003 4.403a.103.103 0 0 0 .103.104l2.828.006a.103.103 0 0 1 .103.103l.004 1.848a.102.102 0 0 1-.031.073.101.101 0 0 1-.073.03l-2.827.004a.106.106 0 0 0-.074.03.105.105 0 0 0-.03.073Z" fill="#fff"/></g><defs><clipPath id="a"><path fill="#fff" transform="translate(.853 .001)" d="M0 0h144.294v22H0z"/></clipPath></defs></svg>
